ui/StatusQ/src/assets/img/icons/desktop.svg

<svg fill="none" height="24" viewBox="0 0 24 24" width="24" xmlns="http://www.w3.org/2000/svg"><path clip-rule="evenodd" d="m19.6846 14.34c-.1394.2788-.0624.6375.1793.8344.3867.315.6968.7279.8903 1.2114l.8742 2.1857c.6569 1.6422-.5525 3.4285-2.3212 3.4285h-14.61479c-1.76866 0-2.97806-1.7863-2.32119-3.4285l.87427-2.1857c.19342-.4835.50354-.8964.89028-1.2114.24165-.1969.31865-.5556.17924-.8344-.2017-.4033-.31519-.8584-.31519-1.34v-8c0-1.65685 1.34315-3 3-3h9.99998c1.6569 0 3 1.34315 3 3v8c0 .4816-.1135.9367-.3152 1.34zm-15.92067 4.7886.87428-2.1857c.22779-.5695.77936-.9429 1.39271-.9429h11.93778c.6134 0 1.1649.3734 1.3927.9429l.8743 2.1857c.2628.6569-.221 1.3714-.9285 1.3714h-14.61479c-.70747 0-1.19123-.7145-.92848-1.3714zm13.23587-4.6286h-9.99998c-.82842 0-1.5-.6716-1.5-1.5v-8c0-.82843.67158-1.5 1.5-1.5h9.99998c.8285 0 1.5.67157 1.5 1.5v8c0 .8284-.6715 1.5-1.5 1.5z" fill="#000" fill-rule="evenodd"/></svg>

<svg width="24" height="24" viewBox="0 0 24 24" fill="none" xmlns="http://www.w3.org/2000/svg">
<path fill-rule="evenodd" clip-rule="evenodd" d="M19.6846 14.34C19.5452 14.6188 19.6222 14.9775 19.8639 15.1744C20.2506 15.4894 20.5607 15.9023 20.7542 16.3858L21.6284 18.5715C22.2853 20.2137 21.0759 22 19.3072 22H4.69241C2.92375 22 1.71435 20.2137 2.37122 18.5715L3.24549 16.3858C3.43891 15.9023 3.74903 15.4894 4.13577 15.1744C4.37742 14.9775 4.45442 14.6188 4.31501 14.34C4.11331 13.9367 3.99982 13.4816 3.99982 13V5C3.99982 3.34315 5.34297 2 6.99982 2H16.9998C18.6567 2 19.9998 3.34315 19.9998 5V13C19.9998 13.4816 19.8863 13.9367 19.6846 14.34ZM3.76393 19.1286L4.63821 16.9429C4.866 16.3734 5.41757 16 6.03092 16H17.9687C18.5821 16 19.1336 16.3734 19.3614 16.9429L20.2357 19.1286C20.4985 19.7855 20.0147 20.5 19.3072 20.5H4.69241C3.98494 20.5 3.50118 19.7855 3.76393 19.1286ZM16.9998 14.5H6.99982C6.1714 14.5 5.49982 13.8284 5.49982 13V5C5.49982 4.17157 6.1714 3.5 6.99982 3.5H16.9998C17.8283 3.5 18.4998 4.17157 18.4998 5V13C18.4998 13.8284 17.8283 14.5 16.9998 14.5Z" fill="black"/>
</svg>
